X:957
T:My Love Is Like A Red Red Rose
C:Joe Buchanan's Scottish Tome - Page 558.3
I:558 3
Z:Carl Allison
R:Waltz
L:1/4
M:3/4
K:D
F | "D"D2 D | "A"(E2 F) | "Bm"(d2 c) | "G"B2 A | "Em"B2 A | "G"(B2 d) | "Em"e3 | "A7"d e f |
"D"D2 D | "A"(E2 F )| "Bm"(d2 c) | "G"B2 A | "Em"(B2 c) | "A7"B2 c | "D"d3- | d2 A | 
"D"d2 f | "F#7"c2 B | "G"(B2 d) | "D"(A2 F) | "D"A2 A | "G"g2 f | "E7/G#"f3  | "A7"(e2 a) |
"D"(f2 a) | "F#m"f2 d | "G"B2 d | "D"A2 G | "D"A2 A | "Em"B2 "A7"c  | "D"d3- | "D"d3 |]

